X: 69
T: Brsjacko Oro
W: originally from Martin Junghans/Jutta Weber-Karn transcription
W: http://www.folkloretanznoten.de/
W: some modifications introduced
M: 2/4
L: 1/16
Q: 1/4=80
K: Gm
%%MIDI program 22 Harmonica
"Gm"G3F "F"G2A2|"Bb"B3A B2c2|Td2Bz Tc2Az|"Gm"BABc AGF2::
Td2Bz Tc2Az|"Gm"BABc AGF2|"F"GABA BcAG|[1"Gm"G3F GABc:|[2G4z4|:
"Gm"G3F "F"GFGA|"Bb"B3A BABc|Td2Bz Tc2Az|"Gm"BABc AGF2:|
Td2Bz Tc2Az|"Gm"BABc AGF2|"F"GABA BcAG|[1"Gm"G3F GABc:|[2G4z4|:
K:Dm
"C"EFGC GCBc|A2GF E2DC|EFGC GCB2-|B2AG AFGC|
"C"EFGC GCBc|A2GF E2DC|EFGC GCB2-|B2AG AGG2:|
[ce][ce][ce][Gc] [ce][df][eg][fa] | [eg]2[df][ce] [df][ce][ce][Gc]|\
[ce][GB][df][GB] [ce][eg]3 |
[eg]2[df][ce] [df][ce][ce]2 | [eg][ce][fa][ce] [fa][g=b]3|\
[g=b]2[fa][eg] [fa][eg][eg]2::
[eg][fa][g=b]2 [gb]2[fa][eg] | [fa]2[eg][df] [eg]3[GB]|\
[ce][df][eg]2 [eg]2[df][ce]| | [df]2[ce][GB] [ce][df][eg]2|
[eg][fa][g=b]2 [gb]2[fa][eg] | [fa]2[eg][df] [eg]3[GB]|\
[ce][df][eg]2 [eg]2[df][ce]| | [df]2[ce][=Bd] [ce]4:|



